src/main/webapp/scripts/pdfjs/v54530/web/images/checkmark.svg

<svg fill="none" height="11" viewBox="0 0 11 11" width="11" xmlns="http://www.w3.org/2000/svg"><path clip-rule="evenodd" d="m9.79253.14683c.41607.272014.53277.829777.26077 1.2458l-5.49233 8.4c-.15287.23377-.40564.38337-.68415.40477-.27852.0215-.55121-.0876-.73808-.29523l-2.907697-3.23077c-.332513-.36946-.3025626-.93852.066897-1.27103.369459-.33251.93852-.30256 1.27103.0669l2.12541 2.36156 4.85236-7.421251c.27201-.41602134.82977-.532762 1.24579-.260749z" fill="#000" fill-rule="evenodd"/></svg>

<svg width="11" height="11" viewBox="0 0 11 11" fill="none" xmlns="http://www.w3.org/2000/svg">
  <g>
    <path fill-rule="evenodd" clip-rule="evenodd" d="M9.79253 0.14683C10.2086 0.418844 10.3253 0.976607 10.0533 1.39263L4.56097 9.79263C4.4081 10.0264 4.15533 10.176 3.87682 10.1974C3.5983 10.2189 3.32561 10.1098 3.13874 9.90217L0.231043 6.6714C-0.10147 6.30194 -0.0715196 5.73288 0.29794 5.40037C0.667399 5.06786 1.23646 5.09781 1.56897 5.46727L3.69438 7.82883L8.54674 0.407579C8.81875 -0.00844234 9.37651 -0.125183 9.79253 0.14683Z" fill="black"/>
  </g>
</svg>
